Breeze Round Dark/actions/24/gnumeric-format-precision-increase.svg

<svg id="svg8" version="1.1" viewBox="0 0 24 24" xmlns="http://www.w3.org/2000/svg">
    <defs id="defs3051">
        <style id="current-color-scheme" type="text/css">.ColorScheme-Text {
        color:#eff0f1;
      }</style>
    </defs><g transform="translate(1,1)">
    <path id="path4" class="ColorScheme-Text" d="m7.5 2c-1.932997 0-3.5 1.7909-3.5 4v3c0 2.2091 1.567003 4 3.5 4s3.5-1.7909 3.5-4v-3c0-2.2091-1.567003-4-3.5-4zm8 0c-1.932997 0-3.5 1.7909-3.5 4v3c0 2.2091 1.567003 4 3.5 4s3.5-1.7909 3.5-4v-3c0-2.2091-1.567003-4-3.5-4zm-8 1c1.380712 0 2.5 1.3432 2.5 3v3c0 1.6569-1.119288 3-2.5 3-1.3807119 0-2.5-1.3431-2.5-3v-3c0-1.6568 1.1192881-3 2.5-3zm8 0c1.380712 0 2.5 1.3431 2.5 3v3c0 1.6569-1.119288 3-2.5 3s-2.5-1.3431-2.5-3v-3c0-1.6569 1.119288-3 2.5-3zm-12.5 9v1h1v-1z" fill="currentColor"/>
    <path id="path6" d="m15 14v2h-2v1h2v2h1v-2h2v-1h-2v-2z" fill="#1d99f3"/>
</g></svg>

<svg xmlns="http://www.w3.org/2000/svg" viewBox="0 0 24 24" width="24" height="24">
  <defs id="defs3051">
    <style type="text/css" id="current-color-scheme">
      .ColorScheme-Text {
        color:#d8d8d8;
      }
      .ColorScheme-Highlight {
        color:#3daee9;
      }
      </style>
  </defs>
  <g transform="translate(1,1)">
    <path style="fill:currentColor;fill-opacity:1;stroke:none" d="M 7.5 2 C 5.57 2 4 3.8 4 6 L 4 9 C 4 11.2 5.57 13 7.5 13 C 9.4 13 11 11.2 11 9 L 11 6 C 11 3.8 9.4 2 7.5 2 z M 15.5 2 C 13.57 2 12 3.8 12 6 L 12 9 C 12 11.2 13.57 13 15.5 13 C 17.4 13 19 11.2 19 9 L 19 6 C 19 3.8 17.4 2 15.5 2 z M 7.5 3 C 8.9 3 10 4.3432 10 6 L 10 9 C 10 10.66 8.9 12 7.5 12 C 6.1 12 5 10.66 5 9 L 5 6 C 5 4.3432 6.1 3 7.5 3 z M 15.5 3 C 16.9 3 18 4.3431 18 6 L 18 9 C 18 10.66 16.9 12 15.5 12 C 14.1 12 13 10.66 13 9 L 13 6 C 13 4.3431 14.1 3 15.5 3 z M 3 12 L 3 13 L 4 13 L 4 12 L 3 12 z " class="ColorScheme-Text"/>
    <path style="fill:currentColor;fill-opacity:1;stroke:none" d="M 15 14 L 15 16 L 13 16 L 13 17 L 15 17 L 15 19 L 16 19 L 16 17 L 18 17 L 18 16 L 16 16 L 16 14 L 15 14 z " class="ColorScheme-Highlight"/>
  </g>
</svg>
